build/static/img/icons/clock.svg

<svg width="23" height="23" viewBox="0 0 23 23" fill="none" xmlns="http://www.w3.org/2000/svg">
<path fill-rule="evenodd" clip-rule="evenodd" d="M9.76897 0.0876979C7.0716 0.540779 4.90998 1.69642 3.04616 3.68173C1.59802 5.22424 0.631936 7.10367 0.167535 9.28201C-0.0576531 10.3383 -0.055434 12.6695 0.171796 13.7149C0.699928 16.1452 1.6479 17.8948 3.37538 19.6274C5.08555 21.3427 6.87881 22.3126 9.31105 22.8379C10.3251 23.0568 12.6735 23.0534 13.7189 22.8314C16.0917 22.3274 17.9008 21.3455 19.6273 19.6244C21.3376 17.9196 22.3242 16.1018 22.8321 13.7196C23.0537 12.6803 23.0565 10.3319 22.8373 9.31227C22.3163 6.88844 21.3451 5.09174 19.6273 3.3742C17.94 1.68711 16.1127 0.686511 13.8076 0.187544C12.8948 -0.0100185 10.6774 -0.0648675 9.76897 0.0876979ZM13.7349 2.21678C15.5055 2.66587 17.0113 3.51061 18.2511 4.75022C19.4861 5.98512 20.3187 7.46569 20.7957 9.27544C20.9889 10.0086 21.0196 10.3138 21.0196 11.5008C21.0196 12.6879 20.9889 12.993 20.7957 13.7262C20.1494 16.1782 18.758 18.1566 16.7556 19.4714C12.3424 22.369 6.47796 21.1727 3.54572 16.7768C2.92669 15.8486 2.52158 14.9288 2.20249 13.7262C2.00668 12.9884 1.9773 12.6953 1.97872 11.5008C1.98023 10.3178 2.01183 10.0061 2.20426 9.27544C2.68056 7.46649 3.51341 5.9853 4.74852 4.75022C7.09698 2.40201 10.5866 1.41827 13.7349 2.21678ZM11.7593 5.19256L11.4998 5.45198V8.4764V11.5008H9.36511C7.01967 11.5008 6.82324 11.5377 6.6253 12.0155C6.49021 12.3416 6.57196 12.6692 6.85457 12.9346L7.07612 13.1427H9.86297H12.6497L12.8959 12.8966L13.1419 12.6506V9.00607V5.36154L12.8929 5.1473C12.5367 4.84101 12.0932 4.85867 11.7593 5.19256Z" fill="#363636"/>
</svg>

<svg width="23" height="23" fill="none" xmlns="http://www.w3.org/2000/svg"><path fill-rule="evenodd" clip-rule="evenodd" d="M9.769.088C7.072.54 4.91 1.696 3.046 3.682 1.598 5.224.632 7.104.168 9.282c-.226 1.056-.223 3.387.004 4.433.528 2.43 1.476 4.18 3.203 5.912 1.71 1.716 3.504 2.686 5.936 3.21 1.014.22 3.363.216 4.408-.006 2.373-.504 4.182-1.485 5.908-3.207 1.71-1.704 2.697-3.522 3.205-5.904.222-1.04.224-3.388.005-4.408-.52-2.424-1.492-4.22-3.21-5.938C17.94 1.687 16.113.687 13.807.188c-.912-.198-3.13-.253-4.038-.1zm3.966 2.129c1.77.449 3.276 1.294 4.516 2.533 1.235 1.235 2.068 2.716 2.545 4.525.193.734.224 1.039.224 2.226s-.031 1.492-.224 2.225c-.647 2.452-2.038 4.43-4.04 5.745a9.536 9.536 0 01-13.21-2.694c-.62-.928-1.024-1.848-1.344-3.05-.195-.739-.225-1.032-.223-2.226.001-1.183.033-1.495.225-2.226.477-1.809 1.31-3.29 2.545-4.525 2.348-2.348 5.838-3.332 8.986-2.533zm-1.976 2.976l-.26.259v6.049H9.366c-2.345 0-2.542.037-2.74.514-.135.327-.053.654.23.92l.221.208h5.574l.246-.246.246-.246V5.362l-.25-.215c-.355-.306-.799-.288-1.133.046z" fill="#363636"/></svg>
